icons/copy.svg

<svg width="24" height="24" viewBox="0 0 24 24" fill="none" xmlns="http://www.w3.org/2000/svg">
<path d="M21.8101 12.9567C22 12.4978 22 11.9145 22 10.75C22 8.67896 20.3249 6.99998 18.255 6.99999L17.0029 6.99999M21.8101 12.9567C21.6845 13.2601 21.5005 13.5358 21.2684 13.768C21.0363 14.0002 20.7608 14.1844 20.4576 14.31C19.9989 14.5 19.4159 14.5 18.2522 14.5C17.0884 14.5 16.5054 14.5 16.0468 14.69C15.7435 14.8156 15.468 14.9998 15.2359 15.232C15.0039 15.4642 14.8198 15.7399 14.6942 16.0433C14.5043 16.5022 14.5043 17.0856 14.5043 18.25C14.5043 19.4144 14.5043 19.9978 14.3144 20.4567C14.1889 20.7601 14.0048 21.0358 13.7727 21.268C13.5407 21.5002 13.2651 21.6844 12.9619 21.81M21.8101 12.9567C21.2127 15.0177 20.1139 16.8983 18.612 18.4301C17.1101 19.962 15.252 21.0973 13.204 21.7344L12.9619 21.81M12.9619 21.81C12.5033 22 11.9203 22 10.7565 22C8.68663 22 7.00867 20.3211 7.00867 18.25V17M7.00867 17V12.5C7.00867 9.46243 9.46938 6.99999 12.5052 6.99999L17.0029 6.99999M7.00867 17C4.24884 17 2.00845 14.7614 2.00279 12C1.99963 10.4634 1.99812 8.92677 2.00396 7.39023C2.01534 4.39574 4.45847 2 7.45125 2L12.0058 2C14.7656 2 17.0029 4.23857 17.0029 6.99999" stroke="black" stroke-width="2" stroke-linecap="round" stroke-linejoin="round"/>
</svg>

<svg xmlns="http://www.w3.org/2000/svg" width="24" height="24" viewBox="0 0 24 24" fill="none" stroke="currentColor" stroke-width="2" stroke-linecap="round" stroke-linejoin="round">
<path d="M21.81 12.957c.19-.46.19-1.043.19-2.207A3.747 3.747 0 0 0 18.255 7h-1.252m4.807 5.957a2.5 2.5 0 0 1-1.352 1.353c-.46.19-1.042.19-2.206.19s-1.747 0-2.205.19a2.5 2.5 0 0 0-1.353 1.353c-.19.46-.19 1.043-.19 2.207s0 1.748-.19 2.207a2.5 2.5 0 0 1-1.352 1.353m8.848-8.853a12.98 12.98 0 0 1-8.606 8.777l-.242.076m0 0c-.459.19-1.042.19-2.205.19a3.75 3.75 0 0 1-3.748-3.75V17m0 0v-4.5c0-3.038 2.46-5.5 5.496-5.5h4.498M7.009 17c-2.76 0-5-2.239-5.006-5q-.006-2.305.001-4.61C2.015 4.396 4.458 2 7.451 2h4.555a5 5 0 0 1 4.997 5"/>
</svg>
